art/logos/naomi.svg

<svg fill-rule="evenodd" height="86.4pt" stroke-linejoin="bevel" stroke-width=".501" viewBox="0 0 417.6 86.4" width="417.6pt" xmlns="http://www.w3.org/2000/svg"><g fill="none" stroke="none" transform="matrix(1 0 0 -1 0 86.4)"><g fill="#000"><path d="m72.677 6.953v76.061h-12.644l.208-48.91-58.443 48.288.206-76.267h10.985v49.324z"/><path d="m80.758 5.711 9.74 16.579h-8.912v11.606h14.715l26.736 48.496 42.692-76.681h-15.129l-8.704 16.579h-37.925l-9.121-16.579zm28.393 28.393h27.356l-13.678 25.075z"/><path d="m273.912 5.711h-12.436v76.473l42.28-49.117 42.691 50.153v-77.509h-13.264l-.206 41.657-29.43-35.44-29.635 35.232z"/><path d="m370.488 5.711.208 78.34h12.642l-.208-78.34z"/><path d="m394.943 71.201v10.983h-3.524v2.073h9.743v-2.073h-3.732v-10.983z"/><path d="m401.782 71.407v12.85h3.524l3.729-8.084 3.524 8.084h2.695v-13.056h-2.487v8.495l-3.523-8.495-4.975 8.495v-8.495z"/></g><path d="m165.315 43.222c0 23.004 18.652 41.657 41.657 41.657 23.004 0 41.657-18.653 41.657-41.657 0-23.005-18.653-41.657-41.657-41.657-23.005 0-41.657 18.652-41.657 41.657m41.657-29.221c16.165 0 29.221 13.056 29.221 29.221 0 15.957-13.056 29.015-29.221 29.015-15.958 0-29.016-13.058-29.016-29.015 0-16.165 13.058-29.221 29.016-29.221" fill="#f00"/></g></svg>

<?xml version="1.0" standalone="no"?>
<!DOCTYPE svg PUBLIC "-//W3C//DTD SVG 1.1//EN" "http://www.w3.org/Graphics/SVG/1.1/DTD/svg11.dtd">
<!--Generator: Xara Xtreme (www.xara.com), SVG filter version: 1.0.0.13-->
<svg stroke-width="0.501" stroke-linejoin="bevel" fill-rule="evenodd" xmlns:xlink="http://www.w3.org/1999/xlink" xmlns="http://www.w3.org/2000/svg" version="1.1" overflow="visible" width="417.6pt" height="86.4pt" viewBox="0 0 417.6 86.4">
 <defs>
  <marker id="DefaultArrow2" markerUnits="strokeWidth" viewBox="0 0 1 1" markerWidth="1" markerHeight="1" overflow="visible" orient="auto">
   <!-- REF_ARROW_STRAIGHT (-2) -->
   <g transform="scale(0.0092592592)">
    <!-- 1/108 -->
    <path d="M -9 54 L -9 -54 L 117 0 z"/>
   </g>
  </marker>
  <marker id="DefaultArrow3" markerUnits="strokeWidth" viewBox="0 0 1 1" markerWidth="1" markerHeight="1" overflow="visible" orient="auto">
   <!-- REF_ARROW_ANGLED -->
   <g transform="scale(0.0092592592)">
    <path d="M -27 54 L -9 0 L -27 -54 L 135 0 z"/>
   </g>
  </marker>
  <marker id="DefaultArrow4" markerUnits="strokeWidth" viewBox="0 0 1 1" markerWidth="1" markerHeight="1" overflow="visible" orient="auto">
   <!-- REF_ARROW_ROUNDED -->
   <g transform="scale(0.0092592592)">
    <path d="M -9,0 L -9,-45 C -9,-51.708 2.808,-56.580 9,-54 L 117,-9 C 120.916,-7.369 126.000,-4.242 126,0 C 126,4.242 120.916,7.369 117,9 L 9,54 C 2.808,56.580 -9,51.708 -9,45 z"/>
   </g>
  </marker>
  <marker id="DefaultArrow5" markerUnits="strokeWidth" viewBox="0 0 1 1" markerWidth="1" markerHeight="1" overflow="visible" orient="auto">
   <!-- REF_ARROW_SPOT -->
   <g transform="scale(0.0092592592)">
    <path d="M -54, 0 C -54,29.807 -29.807,54 0,54 C 29.807,54 54,29.807 54,0 C 54,-29.807 29.807,-54 0,-54 C -29.807,-54 -54,-29.807 -54,0 z"/>
   </g>
  </marker>
  <marker id="DefaultArrow6" markerUnits="strokeWidth" viewBox="0 0 1 1" markerWidth="1" markerHeight="1" overflow="visible" orient="auto">
   <!-- REF_ARROW_DIAMOND -->
   <g transform="scale(0.0092592592)">
    <path d="M -63,0 L 0,63 L 63,0 L 0,-63 z"/>
   </g>
  </marker>
  <marker id="DefaultArrow7" markerUnits="strokeWidth" viewBox="0 0 1 1" markerWidth="1" markerHeight="1" overflow="visible" orient="auto">
   <!-- REF_ARROW_FEATHER -->
   <g transform="scale(0.0092592592)">
    <path d="M 18,-54 L 108,-54 L 63,0 L 108,54 L 18, 54 L -36,0 z"/>
   </g>
  </marker>
  <marker id="DefaultArrow8" markerUnits="strokeWidth" viewBox="0 0 1 1" markerWidth="1" markerHeight="1" overflow="visible" orient="auto">
   <!-- REF_ARROW_FEATHER2 -->
   <g transform="scale(0.0092592592)">
    <path d="M -36,0 L 18,-54 L 54,-54 L 18,-18 L 27,-18 L 63,-54 L 99,-54 L 63,-18 L 72,-18 L 108,-54 L 144,-54 L 90,0 L 144,54 L 108,54 L 72,18 L 63,18 L 99,54 L 63,54 L 27,18 L 18,18 L 54,54 L 18,54 z"/>
   </g>
  </marker>
  <marker id="DefaultArrow9" markerUnits="strokeWidth" viewBox="0 0 1 1" markerWidth="1" markerHeight="1" overflow="visible" orient="auto">
   <!-- REF_ARROW_HOLLOWDIAMOND -->
   <g transform="scale(0.0092592592)">
    <path d="M 0,45 L -45,0 L 0, -45 L 45, 0 z M 0, 63 L-63, 0 L 0, -63 L 63, 0 z"/>
   </g>
  </marker>
  <filter id="StainedFilter">
   <feBlend mode="multiply" in2="BackgroundImage" in="SourceGraphic" result="blend"/>
   <feComposite in="blend" in2="SourceAlpha" operator="in" result="comp"/>
  </filter>
  <filter id="BleachFilter">
   <feBlend mode="screen" in2="BackgroundImage" in="SourceGraphic" result="blend"/>
   <feComposite in="blend" in2="SourceAlpha" operator="in" result="comp"/>
  </filter>
  <filter id="InvertTransparencyBitmapFilter">
   <feComponentTransfer>
    <feFuncR type="gamma" amplitude="1.055" exponent=".416666666" offset="-0.055"/>
    <feFuncG type="gamma" amplitude="1.055" exponent=".416666666" offset="-0.055"/>
    <feFuncB type="gamma" amplitude="1.055" exponent=".416666666" offset="-0.055"/>
   </feComponentTransfer>
   <feComponentTransfer>
    <feFuncR type="linear" slope="-1" intercept="1"/>
    <feFuncG type="linear" slope="-1" intercept="1"/>
    <feFuncB type="linear" slope="-1" intercept="1"/>
    <feFuncA type="linear" slope="1" intercept="0"/>
   </feComponentTransfer>
   <feComponentTransfer>
    <feFuncR type="gamma" amplitude="1" exponent="2.4" offset="0"/>
    <feFuncG type="gamma" amplitude="1" exponent="2.4" offset="0"/>
    <feFuncB type="gamma" amplitude="1" exponent="2.4" offset="0"/>
   </feComponentTransfer>
  </filter>
 </defs>
 <g id="Document" fill="none" stroke="black" font-family="Times New Roman" font-size="16" transform="scale(1 -1)">
  <g id="Spread" transform="translate(0 -86.4)">
   <g id="Layer 1">
    <path d="M 72.677,6.953 L 72.677,83.014 L 60.033,83.014 L 60.241,34.104 L 1.798,82.392 L 2.004,6.125 L 12.989,6.125 L 12.989,55.449 L 72.677,6.953" stroke="none" fill="#000000"/>
    <path d="M 80.758,5.711 L 90.498,22.29 L 81.586,22.29 L 81.586,33.896 L 96.301,33.896 L 123.037,82.392 L 165.729,5.711 L 150.6,5.711 L 141.896,22.29 L 103.971,22.29 L 94.85,5.711 L 80.758,5.711 M 109.151,34.104 L 136.507,34.104 L 122.829,59.179 L 109.151,34.104" stroke="none" fill="#000000"/>
    <path d="M 273.912,5.711 L 261.476,5.711 L 261.476,82.184 L 303.756,33.067 L 346.447,83.22 L 346.447,5.711 L 333.183,5.711 L 332.977,47.368 L 303.547,11.928 L 273.912,47.16 L 273.912,5.711" stroke="none" fill="#000000"/>
    <path d="M 370.488,5.711 L 370.696,84.051 L 383.338,84.051 L 383.13,5.711 L 370.488,5.711" stroke="none" fill="#000000"/>
    <path d="M 394.943,71.201 L 394.943,82.184 L 391.419,82.184 L 391.419,84.257 L 401.162,84.257 L 401.162,82.184 L 397.43,82.184 L 397.43,71.201 L 394.943,71.201" stroke="none" fill="#000000"/>
    <path d="M 401.782,71.407 L 401.782,84.257 L 405.306,84.257 L 409.035,76.173 L 412.559,84.257 L 415.254,84.257 L 415.254,71.201 L 412.767,71.201 L 412.767,79.696 L 409.244,71.201 L 404.269,79.696 L 404.269,71.201 L 401.782,71.407" stroke="none" fill="#000000"/>
    <path d="M 165.315,43.222 C 165.315,66.226 183.967,84.879 206.972,84.879 C 229.976,84.879 248.629,66.226 248.629,43.222 C 248.629,20.217 229.976,1.565 206.972,1.565 C 183.967,1.565 165.315,20.217 165.315,43.222 M 206.972,14.001 C 223.137,14.001 236.193,27.057 236.193,43.222 C 236.193,59.179 223.137,72.237 206.972,72.237 C 191.014,72.237 177.956,59.179 177.956,43.222 C 177.956,27.057 191.014,14.001 206.972,14.001" stroke="none" fill="#ff0000"/>
   </g>
  </g>
 </g>
</svg>
